flaticon/interaction/browser-11.svg

<svg xmlns="http://www.w3.org/2000/svg" width="32" height="32" viewBox="0 0 24 24">
    <path d="M 22.285156 16.285156 L 22.285156 15.855469 C 22.285156 14.203125 20.941406 12.855469 19.285156 12.855469 C 17.632812 12.855469 16.285156 14.203125 16.285156 15.855469 L 16.285156 16.285156 L 14.570312 16.285156 L 14.570312 24 L 24 24 L 24 16.285156 Z M 17.144531 15.855469 C 17.144531 14.675781 18.105469 13.714844 19.285156 13.714844 C 20.46875 13.714844 21.429688 14.675781 21.429688 15.855469 L 21.429688 16.285156 L 17.144531 16.285156 Z M 23.144531 23.144531 L 15.429688 23.144531 L 15.429688 17.144531 L 23.144531 17.144531 Z M 23.144531 23.144531"/>
    <path d="M19.285156 18.429688C18.339844 18.429688 17.570312 19.199219 17.570312 20.144531 17.570312 20.941406 18.121094 21.605469 18.855469 21.796875L18.855469 22.285156C18.855469 22.523438 19.050781 22.714844 19.285156 22.714844 19.523438 22.714844 19.714844 22.523438 19.714844 22.285156L19.714844 21.796875C20.453125 21.605469 21 20.941406 21 20.144531 21 19.199219 20.230469 18.429688 19.285156 18.429688zM19.285156 21C18.8125 21 18.429688 20.617188 18.429688 20.144531 18.429688 19.671875 18.8125 19.285156 19.285156 19.285156 19.757812 19.285156 20.144531 19.671875 20.144531 20.144531 20.144531 20.617188 19.757812 21 19.285156 21zM3.429688 1.714844C2.484375 1.714844 1.714844 2.484375 1.714844 3.429688 1.714844 4.375 2.484375 5.144531 3.429688 5.144531 4.375 5.144531 5.144531 4.375 5.144531 3.429688 5.144531 2.484375 4.375 1.714844 3.429688 1.714844zM3.429688 4.285156C2.957031 4.285156 2.570312 3.902344 2.570312 3.429688 2.570312 2.957031 2.957031 2.570312 3.429688 2.570312 3.902344 2.570312 4.285156 2.957031 4.285156 3.429688 4.285156 3.902344 3.902344 4.285156 3.429688 4.285156zM7.285156 1.714844C6.339844 1.714844 5.570312 2.484375 5.570312 3.429688 5.570312 4.375 6.339844 5.144531 7.285156 5.144531 8.230469 5.144531 9 4.375 9 3.429688 9 2.484375 8.230469 1.714844 7.285156 1.714844zM7.285156 4.285156C6.8125 4.285156 6.429688 3.902344 6.429688 3.429688 6.429688 2.957031 6.8125 2.570312 7.285156 2.570312 7.757812 2.570312 8.144531 2.957031 8.144531 3.429688 8.144531 3.902344 7.757812 4.285156 7.285156 4.285156zM11.144531 1.714844C10.199219 1.714844 9.429688 2.484375 9.429688 3.429688 9.429688 4.375 10.199219 5.144531 11.144531 5.144531 12.089844 5.144531 12.855469 4.375 12.855469 3.429688 12.855469 2.484375 12.089844 1.714844 11.144531 1.714844zM11.144531 4.285156C10.671875 4.285156 10.285156 3.902344 10.285156 3.429688 10.285156 2.957031 10.671875 2.570312 11.144531 2.570312 11.617188 2.570312 12 2.957031 12 3.429688 12 3.902344 11.617188 4.285156 11.144531 4.285156zM11.144531 4.285156"/>
    <path d="M 12.429688 21 L 0.855469 21 L 0.855469 6.855469 L 21.429688 6.855469 L 21.429688 12 C 21.429688 12.238281 21.621094 12.429688 21.855469 12.429688 C 22.09375 12.429688 22.285156 12.238281 22.285156 12 L 22.285156 0.429688 C 22.285156 0.191406 22.09375 0 21.855469 0 L 0.429688 0 C 0.191406 0 0 0.191406 0 0.429688 L 0 21.429688 C 0 21.664062 0.191406 21.855469 0.429688 21.855469 L 12.429688 21.855469 C 12.664062 21.855469 12.855469 21.664062 12.855469 21.429688 C 12.855469 21.191406 12.664062 21 12.429688 21 Z M 0.855469 0.855469 L 21.429688 0.855469 L 21.429688 6 L 0.855469 6 Z M 0.855469 0.855469"/>
</svg>

<svg xmlns="http://www.w3.org/2000/svg" width="32" height="32" viewBox="0 0 24 24">
    <path d="M22.285 16.285v-.43c0-1.652-1.344-3-3-3-1.652 0-3 1.348-3 3v.43H14.57V24H24v-7.715zm-5.14-.43c0-1.18.96-2.14 2.14-2.14 1.184 0 2.145.96 2.145 2.14v.43h-4.285zm6 7.29H15.43v-6h7.715zm0 0"/>
    <path d="M19.285 18.43c-.945 0-1.715.77-1.715 1.715 0 .796.551 1.46 1.285 1.652v.488c0 .238.196.43.43.43.238 0 .43-.192.43-.43v-.488a1.71 1.71 0 0 0-.43-3.367zm0 2.57a.859.859 0 0 1 0-1.715c.473 0 .86.387.86.86a.859.859 0 0 1-.86.855zm0 0M3.43 1.715c-.946 0-1.715.77-1.715 1.715 0 .945.77 1.715 1.715 1.715.945 0 1.715-.77 1.715-1.715 0-.946-.77-1.715-1.715-1.715zm0 2.57a.859.859 0 0 1-.86-.855c0-.473.387-.86.86-.86a.859.859 0 0 1 0 1.715zm0 0M7.285 1.715c-.945 0-1.715.77-1.715 1.715 0 .945.77 1.715 1.715 1.715C8.23 5.145 9 4.375 9 3.43c0-.946-.77-1.715-1.715-1.715zm0 2.57a.859.859 0 0 1 0-1.715c.473 0 .86.387.86.86a.859.859 0 0 1-.86.855zm0 0M11.145 1.715c-.946 0-1.715.77-1.715 1.715 0 .945.77 1.715 1.715 1.715.945 0 1.71-.77 1.71-1.715 0-.946-.765-1.715-1.71-1.715zm0 2.57a.859.859 0 0 1-.86-.855c0-.473.387-.86.86-.86a.859.859 0 0 1 0 1.715zm0 0"/>
    <path d="M12.43 21H.855V6.855H21.43V12a.428.428 0 1 0 .855 0V.43a.428.428 0 0 0-.43-.43H.43A.428.428 0 0 0 0 .43v21c0 .234.191.425.43.425h12a.427.427 0 0 0 0-.855zM.855.855H21.43V6H.855zm0 0"/>
</svg>
